; generated by PrusaSlicer 2.6.1+win64 on 2023-11-22 at 17:31:34 UTC


;
;

;
;

;
;
; 

; external perimeters extrusion width = 0.45mm
; perimeters extrusion width = 0.45mm
; infill extrusion width = 0.45mm
; solid infill extrusion width = 0.45mm
; top infill extrusion width = 0.40mm
; first layer extrusion width = 0.50mm

M73 P0 R219
M201 X2500 Y2500 Z200 E2500 ; sets maximum accelerations, mm/sec^2
M203 X200 Y200 Z40 E100 ; sets maximum feedrates, mm / sec
M204 P2000 R1200 T2000 ; sets acceleration (P, T) and retract acceleration (R), mm/sec^2
M205 X8.00 Y8.00 Z2.00 E10.00 ; sets the jerk limits, mm/sec
M205 S0 T0 ; sets the minimum extruding and travel feed rate, mm/sec
;TYPE:Custom
M17 ; enable steppers
M862.3 P "MK4" ; printer model check
M862.1 P0.4 ; nozzle diameter check
M555 X106.8 Y63.3 W36.4 H30.2707

G90 ; use absolute coordinates
M83 ; extruder relative mode

M140 S100 ; set bed temp

M104 S170 ; set extruder temp for bed leveling
M109 R170 ; wait for temp


M84 E ; turn off E motor

G28 ; home all without mesh bed level

G1 X42 Y-4 Z5 F4800

M302 S160 ; lower cold extrusion limit to 160C


G1 E-2 F2400 ; retraction


M84 E ; turn off E motor

G29 P9 X10 Y-4 W32 H4



G0 Z40 F10000

M190 S100 ; wait for bed temp

M107

;
; MBL
;
M84 E ; turn off E motor
G29 P1 ; invalidate mbl & probe print area
G29 P1 X0 Y0 W50 H20 C ; probe near purge place
G29 P3.2 ; interpolate mbl probes
G29 P3.13 ; extrapolate mbl outside probe area
G29 A ; activate mbl

; prepare for purge
M104 S255
G0 X0 Y-4 Z15 F4800 ; move away and ready for the purge
M109 S255

G92 E0
M569 S0 E ; set spreadcycle mode for extruder

;
; Extrude purge line
;
G92 E0 ; reset extruder position
G1 E2 F2400 ; deretraction after the initial one before nozzle cleaning
G0 E7 X15 Z0.2 F500 ; purge
G0 X25 E4 F500 ; purge
G0 X35 E4 F650 ; purge
G0 X45 E4 F800 ; purge
G0 X48 Z0.05 F8000 ; wipe, move close to the bed
G0 X51 Z0.2 F8000 ; wipe, move quickly away from the bed

G92 E0
M221 S100 ; set flow to 100%
G21 ; set units to millimeters
G90 ; use absolute coordinates
M83 ; use relative distances for extrusion
M900 K0.04 ; Filament gcode



M142 S40 ; set heatbreak target temp
M107
;LAYER_CHANGE
;Z:0.2
;HEIGHT:0.2
;BEFORE_LAYER_CHANGE
G92 E0.0
;0.2


G1 E-.8 F2100
G1 Z.2 F720
;AFTER_LAYER_CHANGE
;0.2
; printing object Teeflange v2.5.STL id:0 copy 0
G1 Z.4
G1 X131.357 Y92.667 F12000
G1 Z.2 F720
G1 E.8 F1500
M204 P600
;TYPE:Perimeter
;WIDTH:0.499999
G1 F1200
G1 X131.714 Y92.446 E.01596
G1 X132.414 Y91.838 E.03524
G1 X133.009 Y91.128 E.03521
G1 X133.486 Y90.333 E.03524
G1 X133.833 Y89.474 E.03521
G1 X134.025 Y88.677 E.03116
G1 X134.107 Y87.709 E.03692
G1 X134.107 Y68.207 E.7412
G1 X142.293 Y68.207 E.31112
G1 X142.293 Y92.664 E.92952
G1 X131.417 Y92.667 E.41336
M204 P1000
G1 E-.64 F2100
;WIPE_START
G1 F9600
G1 X131.714 Y92.446 E-.07693
G1 X132.016 Y92.184 E-.08307
;WIPE_END
G1 Z.4 F720
G1 X107.19 Y92.965 F12000
G1 Z.2 F720
G1 E.8 F1500
M204 P600
;TYPE:External perimeter
;WIDTH:0.456801
M73 P0 R218
G1 F1200
G1 X107.414 Y92.928 E.00781
G1 X128.201 Y92.928 E.71537
;WIDTH:0.456275
G1 X128.217 Y92.928 E.00055
;WIDTH:0.499629
G1 X129.178 Y92.864 E.03658
;WIDTH:0.526531
G1 X130.122 Y92.708 E.03848
;WIDTH:0.540242
G1 X130.687 Y92.553 E.02423
G1 X131.418 Y92.099 E.03558
;WIDTH:0.499999
G1 X132.066 Y91.541 E.0325
G1 X132.62 Y90.889 E.03252
G1 X133.064 Y90.158 E.03251
G1 X133.389 Y89.367 E.0325
G1 X133.586 Y88.535 E.0325
G1 X133.65 Y87.709 E.03149
G1 X133.65 Y67.75 E.75857
G1 X142.75 Y67.75 E.34586
G1 X142.75 Y72.3 E.17293
G1 X142.75 Y93.121 E.79133
G1 X131.224 Y93.125 E.43806
;WIDTH:0.534063
G1 X130.965 Y93.118 E.01058
;WIDTH:0.568127
G1 X130.707 Y93.111 E.01127
G1 X130.286 Y93.174 E.01859
;WIDTH:0.535756
G1 X129.865 Y93.236 E.01744
;WIDTH:0.503385
G1 X129.019 Y93.325 E.03257
;WIDTH:0.487117
G1 X128.201 Y93.341 E.03022
;WIDTH:0.456801
G1 X107.414 Y93.342 E.71537
G1 X107.19 Y93.305 E.00781
G1 X107.19 Y93.025 E.00964
M204 P1000
G1 X107.411 Y93.018 F12000
G1 E-.64 F2100
;WIPE_START
G1 F9600
G1 X107.414 Y92.928 E-.05073
G1 X107.94 Y92.928 E-.10927
;WIPE_END
G1 Z.4 F720
G1 X142.087 Y69.355 F12000
G1 Z.2 F720
G1 E.8 F1500
M204 P600
;TYPE:Solid infill
;WIDTH:0.508701
G1 F1200
G1 X141.35 Y68.618 E.04037
G1 X140.692 Y68.618 E.02548
G1 X141.882 Y69.808 E.06518
G1 X141.882 Y70.467 E.02552
G1 X140.033 Y68.618 E.10127
G1 X139.374 Y68.618 E.02552
G1 X141.882 Y71.126 E.13737
G1 X141.882 Y71.784 E.02548
G1 X138.716 Y68.618 E.17341
G1 X138.057 Y68.618 E.02552
G1 X141.882 Y72.443 E.2095
G1 X141.882 Y73.102 E.02552
G1 X137.398 Y68.618 E.2456
G1 X136.739 Y68.618 E.02552
G1 X141.882 Y73.761 E.28169
G1 X141.882 Y74.419 E.02548
G1 X136.081 Y68.618 E.31773
G1 X135.422 Y68.618 E.02552
G1 X141.882 Y75.078 E.35383
G1 X141.882 Y75.737 E.02552
G1 X134.763 Y68.618 E.38992
G1 X134.518 Y68.618 E.00949
G1 X134.518 Y69.032 E.01603
G1 X141.882 Y76.395 E.40332
G1 X141.882 Y77.054 E.02552
G1 X134.518 Y69.691 E.40332
G1 X134.518 Y70.35 E.02552
G1 X141.882 Y77.713 E.40332
G1 X141.882 Y78.372 E.02552
G1 X134.518 Y71.008 E.40334
G1 X134.518 Y71.667 E.02552
G1 X141.882 Y79.03 E.40332
G1 X141.882 Y79.689 E.02552
G1 X134.518 Y72.326 E.40332
G1 X134.518 Y72.985 E.02552
G1 X141.882 Y80.348 E.40332
G1 X141.882 Y81.006 E.02548
G1 X134.518 Y73.643 E.40332
G1 X134.518 Y74.302 E.02552
G1 X141.882 Y81.665 E.40332
G1 X141.882 Y82.324 E.02552
G1 X134.518 Y74.961 E.40332
G1 X134.518 Y75.619 E.02548
G1 X141.882 Y82.983 E.40334
G1 X141.882 Y83.641 E.02548
G1 X134.518 Y76.278 E.40332
G1 X134.518 Y76.937 E.02552
G1 X141.882 Y84.3 E.40332
G1 X141.882 Y84.959 E.02552
G1 X134.518 Y77.596 E.40332
G1 X134.518 Y78.254 E.02548
G1 X141.882 Y85.617 E.40332
G1 X141.882 Y86.276 E.02552
G1 X134.518 Y78.913 E.40332
G1 X134.518 Y79.572 E.02552
G1 X141.882 Y86.935 E.40332
G1 X141.882 Y87.593 E.02548
G1 X134.518 Y80.23 E.40332
G1 X134.518 Y80.889 E.02552
G1 X141.882 Y88.252 E.40332
G1 X141.882 Y88.911 E.02552
G1 X134.518 Y81.548 E.40332
G1 X134.518 Y82.207 E.02552
G1 X141.882 Y89.57 E.40332
G1 X141.882 Y90.228 E.02548
G1 X134.518 Y82.865 E.40332
G1 X134.518 Y83.524 E.02552
G1 X141.882 Y90.887 E.40332
G1 X141.882 Y91.546 E.02552
G1 X134.518 Y84.183 E.40332
G1 X134.518 Y84.841 E.02548
G1 X141.882 Y92.204 E.40332
G1 X141.882 Y92.253 E.0019
G1 X141.271 Y92.253 E.02366
G1 X134.518 Y85.5 E.36988
G1 X134.518 Y86.159 E.02552
G1 X140.613 Y92.253 E.33381
G1 X139.954 Y92.253 E.02552
G1 X134.518 Y86.818 E.29771
G1 X134.518 Y87.476 E.02548
G1 X139.296 Y92.253 E.26167
G1 X138.637 Y92.254 E.02552
G1 X134.489 Y88.106 E.2272
G1 X134.435 Y88.71 E.02349
G1 X137.979 Y92.254 E.19411
G1 X137.32 Y92.254 E.02552
G1 X134.311 Y89.245 E.16481
G1 X134.232 Y89.577 E.01322
G1 X134.169 Y89.761 E.00753
G1 X136.662 Y92.254 E.13655
G1 X136.003 Y92.254 E.02552
G1 X133.976 Y90.227 E.11102
G1 X133.864 Y90.497 E.01132
G1 X133.768 Y90.678 E.00794
G1 X135.345 Y92.255 E.08638
G1 X134.686 Y92.255 E.02552
G1 X133.517 Y91.086 E.06403
G1 X133.356 Y91.349 E.01194
G1 X133.257 Y91.484 E.00648
G1 X134.028 Y92.255 E.04223
G1 X133.369 Y92.255 E.02552
G1 X132.953 Y91.84 E.02276
G1 X132.644 Y92.189 E.01805
G1 X132.916 Y92.461 E.0149
M204 P1000
; stop printing object Teeflange v2.5.STL id:0 copy 0
;LAYER_CHANGE
;Z:0.4
;HEIGHT:0.2
;BEFORE_LAYER_CHANGE
G92 E0.0
;0.4


G1 E-.64 F2100
;WIPE_START
G1 F9600
G1 X132.644 Y92.189 E-.07994
G1 X132.899 Y91.901 E-.08006
;WIPE_END
G1 Z.4 F720
;AFTER_LAYER_CHANGE
;0.4
M140 S110 ; set bed temperature
; printing object Teeflange v2.5.STL id:0 copy 0
G1 Z.6
G1 X107.418 Y93.318 F12000
G1 Z.4 F720
G1 E.8 F1500
M204 P900
;TYPE:Perimeter
;WIDTH:0.421288
G1 F2700
G1 X128.201 Y93.318 E.65386
;WIDTH:0.422499
G1 X128.248 Y93.316 E.00148
;WIDTH:0.457279
G1 X129.129 Y93.257 E.03042
G1 X129.985 Y93.04 E.03043
;WIDTH:0.449999
G1 X130.799 Y92.695 E.02993
G1 X131.548 Y92.227 E.02989
G1 X132.215 Y91.647 E.02992
G1 X132.783 Y90.971 E.02989
G1 X133.238 Y90.213 E.02992
G1 X133.57 Y89.394 E.02991
G1 X133.768 Y88.533 E.0299
G1 X133.832 Y87.701 E.02825
G1 X133.832 Y67.932 E.66916
G1 X142.568 Y67.932 E.2957
G1 X142.568 Y72.3 E.14785

G1 X142.568 Y72.343 E.00146
G1 X142.568 Y92.896 E.69569
G1 F1200
G1 X142.568 Y93.571 E.02285
G1 F903.888
G1 X142.568 Y93.682 E.00376
G1 X141.782 Y93.682 E.02661
G1 X130.753 Y93.682 E.37332
G1 X129.967 Y93.682 E.02661

;WIDTH:0.453428
G1 F906.127

G1 X129.05 Y93.68 E.0313
G1 F900
G1 X128.201 Y93.696 E.02898

;WIDTH:0.421288

G1 X127.444 Y93.696 E.02382
G1 X108.175 Y93.696 E.60623
G1 X107.418 Y93.696 E.02382
G1 X107.418 Y93.571 E.00393
G1 F1200
G1 X107.418 Y93.378 E.00607
G1 F2498.638

M204 P1000
G1 X107.025 Y92.925 F12000
M204 P700
;TYPE:External perimeter
;WIDTH:0.449999
G1 F1500
G1 X128.201 Y92.925 E.71678
G1 X129.033 Y92.858 E.02825
G1 X129.83 Y92.664 E.02777
G1 X130.586 Y92.348 E.02774
G1 X131.284 Y91.917 E.02777
G1 X131.906 Y91.383 E.02775
G1 X132.436 Y90.758 E.02774
G1 X132.862 Y90.058 E.02774
G1 X133.174 Y89.299 E.02778
G1 X133.363 Y88.502 E.02773
G1 X133.425 Y87.701 E.02719
G1 X133.425 Y67.525 E.68293
G1 X142.975 Y67.525 E.32326
G1 X142.975 Y72.3 E.16163

G1 X142.975 Y72.75 E.01523
G1 X142.975 Y92.896 E.68192
G1 F1200
G1 X142.975 Y93.571 E.02285
G1 F900
G1 X142.975 Y93.771 E.00677

M204 P1000
;TYPE:Overhang perimeter

G1 X142.975 Y94.089 E.01076
G1 X141.782 Y94.089 E.04038
G1 X108.218 Y94.089 E1.1361
G1 X107.025 Y94.089 E.04038
G1 X107.025 Y93.771 E.01076

M204 P700
;TYPE:External perimeter

G1 X107.025 Y93.571 E.00677
G1 F1200
G1 X107.025 Y92.985 E.01984
G1 F1500

M204 P1000
G1 E-.64 F2100
;WIPE_START
G1 F9600
G1 X107.795 Y92.983 E-.16
;WIPE_END
G1 Z.6 F720
G1 X134.309 Y68.331 F12000
G1 Z.4 F720
G1 E.8 F1500
M204 P1500
;TYPE:Solid infill
;WIDTH:0.548766
G1 F3614
G1 X134.264 Y68.287 E.00265
G1 X134.203 Y68.303 E.00265
G1 X134.187 Y68.364 E.00265
G1 X134.231 Y68.409 E.00265
G1 X134.293 Y68.393 E.00269
;WIDTH:0.449999
G1 X134.198 Y69.043 E.02224
G1 X134.943 Y68.298 E.03566
G1 X135.036 Y68.227 E.00396
;WIDTH:0.41646
G1 X135.129 Y68.155 E.00365
;WIDTH:0.38292
G1 X135.088 Y68.166 E.0012
G1 X135.069 Y68.095 E.00208
G1 X135.14 Y68.114 E.00208
;WIDTH:0.449999
G1 X135.518 Y68.298 E.01423
G1 X134.198 Y69.618 E.06319
G1 X134.198 Y70.194 E.0195
G1 X136.094 Y68.298 E.09076
G1 X136.67 Y68.298 E.0195
G1 X134.198 Y70.77 E.11833
G1 X134.198 Y71.346 E.0195
G1 X137.246 Y68.298 E.14591
G1 X137.821 Y68.298 E.01946
G1 X134.198 Y71.921 E.17343
G1 X134.198 Y72.497 E.0195
G1 X138.397 Y68.298 E.201
G1 X138.973 Y68.298 E.0195
G1 X134.198 Y73.073 E.22858
G1 X134.198 Y73.648 E.01946
G1 X139.548 Y68.298 E.2561
G1 X140.124 Y68.298 E.0195
G1 X134.198 Y74.224 E.28367
G1 X134.198 Y74.8 E.0195
G1 X140.7 Y68.298 E.31125
G1 X141.275 Y68.298 E.01946
G1 X134.198 Y75.375 E.33877
G1 X134.198 Y75.951 E.0195
G1 X141.851 Y68.298 E.36634
G1 X142.332 Y68.198 E.01663
;WIDTH:0.38292
G1 X142.261 Y68.179 E.00208
G1 X142.28 Y68.25 E.00208
G1 X142.321 Y68.239 E.0012
;WIDTH:0.41646
G1 X142.261 Y68.381 E.00479
;WIDTH:0.449999
G1 X142.202 Y68.524 E.00524
G1 X134.198 Y76.527 E.38312
G1 X134.198 Y77.103 E.0195
G1 X142.202 Y69.099 E.38315
G1 X142.202 Y69.675 E.0195
G1 X134.198 Y77.678 E.38312
G1 X134.198 Y78.254 E.0195
G1 X142.202 Y70.251 E.38312
G1 X142.202 Y70.827 E.0195
G1 X134.198 Y78.83 E.38312
G1 X134.198 Y79.405 E.01946
G1 X142.202 Y71.402 E.38312
G1 X142.202 Y71.978 E.0195
G1 X134.198 Y79.981 E.38312
G1 X134.198 Y80.557 E.0195
G1 X142.202 Y72.554 E.38312
G1 X142.202 Y73.129 E.01946
G1 X134.198 Y81.132 E.38312
G1 X134.198 Y81.708 E.0195
G1 X142.202 Y73.705 E.38312
G1 X142.202 Y74.281 E.0195
G1 X134.198 Y82.284 E.38312
G1 X134.198 Y82.859 E.01946
G1 X142.202 Y74.856 E.38312
G1 X142.202 Y75.432 E.0195
G1 X134.198 Y83.435 E.38312
G1 X134.198 Y84.011 E.0195
G1 X142.202 Y76.008 E.38312
G1 X142.202 Y76.583 E.01946
G1 X134.198 Y84.587 E.38315
G1 X134.198 Y85.162 E.01946
G1 X142.202 Y77.159 E.38312
G1 X142.202 Y77.735 E.0195
G1 X134.198 Y85.738 E.38312
G1 X134.198 Y86.314 E.0195
G1 X142.202 Y78.311 E.38312
G1 X142.202 Y78.886 E.01946
G1 X134.198 Y86.889 E.38312
G1 X134.198 Y87.465 E.0195
G1 X142.202 Y79.462 E.38312
G1 X142.202 Y80.038 E.0195
G1 X134.17 Y88.069 E.38446
G1 X134.109 Y88.706 E.02166
G1 X142.202 Y80.613 E.38741
M204 P1000
G1 E-.64 F2100
;WIPE_START
G1 F9600
G1 X141.658 Y81.157 E-.16
;WIPE_END
G1 Z.6 F720
G1 X133.893 Y88.937 F12000
G1 Z.4 F720
G1 E.8 F1500
M204 P1500
;WIDTH:0.38292
G1 F3614
G1 X133.742 Y89.562 E.01818
G1 X133.75 Y89.748 E.00526
;WIDTH:0.449999
G1 X133.93 Y89.46 E.0115
G1 X142.202 Y81.189 E.39595
G1 X142.202 Y81.765 E.0195
G1 X133.541 Y90.426 E.4146
G1 X133.428 Y90.569 E.00617
;WIDTH:0.41646
G1 X133.316 Y90.713 E.00567
;WIDTH:0.38292
G1 X132.925 Y91.203 E.01772
G1 X132.295 Y91.878 E.0261
G1 X131.617 Y92.498 E.02597
;WIDTH:0.424889
G1 X131.25 Y92.785 E.0148
;WIDTH:0.466858
G1 X130.883 Y93.071 E.0164
;WIDTH:0.513287
G1 X130.814 Y93.124 E.0034
;WIDTH:0.559716
G1 X130.745 Y93.177 E.00374
;WIDTH:0.606144
G1 X130.675 Y93.23 E.00411
;WIDTH:0.449999
G1 X131.234 Y93.308 E.0191
G1 X142.202 Y82.34 E.52503
G1 X142.202 Y82.916 E.0195
G1 X131.809 Y93.309 E.49751
G1 X132.384 Y93.309 E.01946
G1 X142.202 Y83.492 E.46996
G1 X142.202 Y84.068 E.0195
G1 X132.96 Y93.309 E.44238
G1 X133.535 Y93.31 E.01946
G1 X142.202 Y84.643 E.41488
G1 X142.202 Y85.219 E.0195
G1 X134.11 Y93.31 E.38734
G1 X134.686 Y93.311 E.0195
G1 X142.202 Y85.795 E.35979
G1 X142.202 Y86.37 E.01946
G1 X135.261 Y93.311 E.33226
G1 X135.836 Y93.311 E.01946
G1 X142.202 Y86.946 E.30471
G1 X142.202 Y87.522 E.0195
G1 X136.412 Y93.312 E.27716
G1 X136.987 Y93.312 E.01946
G1 X142.202 Y88.097 E.24964
G1 X142.202 Y88.673 E.0195
G1 X137.562 Y93.312 E.22209
G1 X138.138 Y93.313 E.0195
G1 X142.202 Y89.249 E.19454
G1 X142.202 Y89.824 E.01946
G1 X138.713 Y93.313 E.16702
G1 X139.288 Y93.313 E.01946
G1 X142.202 Y90.4 E.13947
G1 X142.202 Y90.976 E.0195
G1 X139.864 Y93.314 E.11192
G1 X140.439 Y93.314 E.01946
G1 X142.202 Y91.552 E.08437
G1 X142.202 Y92.127 E.01946
G1 X141.014 Y93.315 E.05687
G1 X141.59 Y93.315 E.0195
G1 X142.202 Y92.703 E.0293
G1 X142.303 Y92.64 E.00403
;WIDTH:0.41646
G1 X142.405 Y92.577 E.00372
;WIDTH:0.38292
G1 X142.364 Y92.588 E.0012
G1 X142.345 Y92.517 E.00208
G1 X142.416 Y92.536 E.00208
;WIDTH:0.449999
G1 X142.243 Y93.291 E.02622
;WIDTH:0.47142
G1 X142.205 Y93.253 E.00191
G1 X142.153 Y93.267 E.00192
G1 X142.139 Y93.318 E.00188
G1 X142.177 Y93.356 E.00191
G1 X142.229 Y93.342 E.00192
M204 P1000
; stop printing object Teeflange v2.5.STL id:0 copy 0
;LAYER_CHANGE
;Z:0.6
;HEIGHT:0.2
;BEFORE_LAYER_CHANGE
G92 E0.0
;0.6


G1 E-.64 F2100
;WIPE_START
G1 F9600
G1 X142.177 Y93.356 E-.01119
G1 X142.139 Y93.318 E-.01117
G1 X142.153 Y93.267 E-.01099
G1 X142.205 Y93.253 E-.01119
G1 X142.243 Y93.291 E-.01117
G1 X142.355 Y92.802 E-.10429
;WIPE_END
G1 Z.6 F720
;AFTER_LAYER_CHANGE
;0.6
; printing object Teeflange v2.5.STL id:0 copy 0
G1 Z.8
G1 X107.432 Y93.332 F12000
G1 Z.6 F720
G1 E.8 F1500
M204 P900
;TYPE:Perimeter
;WIDTH:0.449999
G1 F2700

G1 X128.249 Y93.33 E.70463
G1 X129.128 Y93.253 E.02987
G1 X129.985 Y93.04 E.02989
G1 X130.799 Y92.695 E.02993
G1 X131.548 Y92.227 E.02989
G1 X132.215 Y91.647 E.02992
G1 X132.786 Y90.966 E.03008
G1 X133.257 Y90.168 E.03137
G1 X133.57 Y89.394 E.02826
G1 X133.768 Y88.533 E.0299
G1 X133.832 Y87.701 E.02825
G1 X133.832 Y67.932 E.66916
G1 X142.568 Y67.932 E.2957
G1 F2267.244
G1 X142.568 Y67.975 E.00146
G1 F2700
G1 X142.568 Y93.639 E.86869
G1 F1891.778
G1 X142.568 Y94.165 E.0178
G1 X142.042 Y94.165 E.0178
G1 X107.958 Y94.165 E1.1537
G1 F1770.539
G1 X107.432 Y94.165 E.0178
G1 F1576.591
G1 X107.432 Y93.392 E.02617
G1 F1656.783

M204 P1000
G1 X107.025 Y92.925 F12000
M204 P700
;TYPE:External perimeter
G1 F1500
G1 X128.201 Y92.925 E.71678
G1 X129.033 Y92.858 E.02825
G1 X129.83 Y92.664 E.02777
G1 X130.586 Y92.348 E.02774
G1 X131.284 Y91.917 E.02777
G1 X131.906 Y91.383 E.02775
G1 X132.437 Y90.756 E.02781
G1 X132.881 Y90.013 E.0293
G1 X133.174 Y89.299 E.02612
G1 X133.363 Y88.502 E.02773
G1 X133.425 Y87.701 E.02719
G1 X133.425 Y67.525 E.68293
G1 X142.975 Y67.525 E.32326
G1 X142.975 Y72.3 E.16163

G1 X142.975 Y72.75 E.01523
G1 X142.975 Y93.639 E.70707
G1 F1200
G1 X142.975 Y94.314 E.02285
G1 F900
